static/img/kroki/51e8a5dcd1bcf0ea928dff3b78fc5f24.svg

<?xml version="1.0" encoding="us-ascii" standalone="no"?><svg xmlns="http://www.w3.org/2000/svg" xmlns:xlink="http://www.w3.org/1999/xlink" contentStyleType="text/css" height="573px" preserveAspectRatio="none" style="width:768px;height:573px;" version="1.1" viewBox="0 0 768 573" width="768px" zoomAndPan="magnify"><defs/><g><!--class azure_machine_learning_environment_version_base--><g id="elem_azure_machine_learning_environment_version_base"><rect codeLine="23" fill="#3D176E" height="39.7891" id="azure_machine_learning_environment_version_base" rx="2.5" ry="2.5" style="stroke:#000D19;stroke-width:0.5;" width="482" x="279" y="367.37"/><ellipse cx="294" cy="387.2645" fill="#ADD1B2" rx="11" ry="11" style="stroke:#181818;stroke-width:1.0;"/><path d="M296.9688,392.9052 Q296.3906,393.202 295.75,393.3427 Q295.1094,393.4989 294.4063,393.4989 Q291.9063,393.4989 290.5781,391.8583 Q289.2656,390.202 289.2656,387.077 Q289.2656,383.952 290.5781,382.2958 Q291.9063,380.6395 294.4063,380.6395 Q295.1094,380.6395 295.75,380.7958 Q296.4063,380.952 296.9688,381.2489 L296.9688,383.9677 Q296.3438,383.3895 295.75,383.1239 Q295.1563,382.8427 294.5313,382.8427 Q293.1875,382.8427 292.5,383.9208 Q291.8125,384.9833 291.8125,387.077 Q291.8125,389.1708 292.5,390.2489 Q293.1875,391.3114 294.5313,391.3114 Q295.1563,391.3114 295.75,391.0458 Q296.3438,390.7645 296.9688,390.1864 L296.9688,392.9052 Z " fill="#000000"/><text fill="#D9B8FF" font-family="Helvetica" font-size="17" lengthAdjust="spacing" textLength="440" x="313" y="393.1498">azure_machine_learning_environment_version_base</text></g><!--class azure_machine_learning_registry_environment_version--><g id="elem_azure_machine_learning_registry_environment_version"><rect codeLine="26" fill="#3D176E" height="39.7891" id="azure_machine_learning_registry_environment_version" rx="2.5" ry="2.5" style="stroke:#000D19;stroke-width:0.5;" width="508" x="7" y="528.16"/><ellipse cx="22" cy="548.0545" fill="#ADD1B2" rx="11" ry="11" style="stroke:#181818;stroke-width:1.0;"/><path d="M24.9688,553.6952 Q24.3906,553.992 23.75,554.1327 Q23.1094,554.2889 22.4063,554.2889 Q19.9063,554.2889 18.5781,552.6483 Q17.2656,550.992 17.2656,547.867 Q17.2656,544.742 18.5781,543.0858 Q19.9063,541.4295 22.4063,541.4295 Q23.1094,541.4295 23.75,541.5858 Q24.4063,541.742 24.9688,542.0389 L24.9688,544.7577 Q24.3438,544.1795 23.75,543.9139 Q23.1563,543.6327 22.5313,543.6327 Q21.1875,543.6327 20.5,544.7108 Q19.8125,545.7733 19.8125,547.867 Q19.8125,549.9608 20.5,551.0389 Q21.1875,552.1014 22.5313,552.1014 Q23.1563,552.1014 23.75,551.8358 Q24.3438,551.5545 24.9688,550.9764 L24.9688,553.6952 Z " fill="#000000"/><text fill="#D9B8FF" font-family="Helvetica" font-size="17" lengthAdjust="spacing" textLength="466" x="41" y="553.9398">azure_machine_learning_registry_environment_version</text></g><!--class azure_proxy_resource--><g id="elem_azure_proxy_resource"><rect codeLine="29" fill="#3D176E" height="39.7891" id="azure_proxy_resource" rx="2.5" ry="2.5" style="stroke:#000D19;stroke-width:0.5;" width="224" x="512" y="167.79"/><ellipse cx="527" cy="187.6845" fill="#ADD1B2" rx="11" ry="11" style="stroke:#181818;stroke-width:1.0;"/><path d="M529.9688,193.3252 Q529.3906,193.622 528.75,193.7627 Q528.1094,193.9189 527.4063,193.9189 Q524.9063,193.9189 523.5781,192.2783 Q522.2656,190.622 522.2656,187.497 Q522.2656,184.372 523.5781,182.7158 Q524.9063,181.0595 527.4063,181.0595 Q528.1094,181.0595 528.75,181.2158 Q529.4063,181.372 529.9688,181.6689 L529.9688,184.3877 Q529.3438,183.8095 528.75,183.5439 Q528.1563,183.2627 527.5313,183.2627 Q526.1875,183.2627 525.5,184.3408 Q524.8125,185.4033 524.8125,187.497 Q524.8125,189.5908 525.5,190.6689 Q526.1875,191.7314 527.5313,191.7314 Q528.1563,191.7314 528.75,191.4658 Q529.3438,191.1845 529.9688,190.6064 L529.9688,193.3252 Z " fill="#000000"/><text fill="#D9B8FF" font-family="Helvetica" font-size="17" lengthAdjust="spacing" textLength="182" x="546" y="193.5698">azure_proxy_resource</text></g><!--class microsoft_resource--><g id="elem_microsoft_resource"><rect codeLine="32" fill="#3D176E" height="39.7891" id="microsoft_resource" rx="2.5" ry="2.5" style="stroke:#000D19;stroke-width:0.5;" width="200" x="126" y="267.58"/><ellipse cx="141" cy="287.4745" fill="#ADD1B2" rx="11" ry="11" style="stroke:#181818;stroke-width:1.0;"/><path d="M143.9688,293.1152 Q143.3906,293.412 142.75,293.5527 Q142.1094,293.7089 141.4063,293.7089 Q138.9063,293.7089 137.5781,292.0683 Q136.2656,290.412 136.2656,287.287 Q136.2656,284.162 137.5781,282.5058 Q138.9063,280.8495 141.4063,280.8495 Q142.1094,280.8495 142.75,281.0058 Q143.4063,281.162 143.9688,281.4589 L143.9688,284.1777 Q143.3438,283.5995 142.75,283.3339 Q142.1563,283.0527 141.5313,283.0527 Q140.1875,283.0527 139.5,284.1308 Q138.8125,285.1933 138.8125,287.287 Q138.8125,289.3808 139.5,290.4589 Q140.1875,291.5214 141.5313,291.5214 Q142.1563,291.5214 142.75,291.2558 Q143.3438,290.9745 143.9688,290.3964 L143.9688,293.1152 Z " fill="#000000"/><text fill="#D9B8FF" font-family="Helvetica" font-size="17" lengthAdjust="spacing" textLength="158" x="160" y="293.3598">microsoft_resource</text></g><!--class phantom_resource--><g id="elem_phantom_resource"><rect codeLine="35" fill="#3D176E" height="39.7891" id="phantom_resource" rx="2.5" ry="2.5" style="stroke:#000D19;stroke-width:0.5;" width="198" x="279" y="167.79"/><ellipse cx="294" cy="187.6845" fill="#ADD1B2" rx="11" ry="11" style="stroke:#181818;stroke-width:1.0;"/><path d="M296.9688,193.3252 Q296.3906,193.622 295.75,193.7627 Q295.1094,193.9189 294.4063,193.9189 Q291.9063,193.9189 290.5781,192.2783 Q289.2656,190.622 289.2656,187.497 Q289.2656,184.372 290.5781,182.7158 Q291.9063,181.0595 294.4063,181.0595 Q295.1094,181.0595 295.75,181.2158 Q296.4063,181.372 296.9688,181.6689 L296.9688,184.3877 Q296.3438,183.8095 295.75,183.5439 Q295.1563,183.2627 294.5313,183.2627 Q293.1875,183.2627 292.5,184.3408 Q291.8125,185.4033 291.8125,187.497 Q291.8125,189.5908 292.5,190.6689 Q293.1875,191.7314 294.5313,191.7314 Q295.1563,191.7314 295.75,191.4658 Q296.3438,191.1845 296.9688,190.6064 L296.9688,193.3252 Z " fill="#000000"/><text fill="#D9B8FF" font-family="Helvetica" font-size="17" lengthAdjust="spacing" textLength="156" x="313" y="193.5698">phantom_resource</text></g><!--class resource--><g id="elem_resource"><rect codeLine="38" fill="#3D176E" height="39.7891" id="resource" rx="2.5" ry="2.5" style="stroke:#000D19;stroke-width:0.5;" width="113" x="204.5" y="7"/><ellipse cx="219.5" cy="26.8945" fill="#ADD1B2" rx="11" ry="11" style="stroke:#181818;stroke-width:1.0;"/><path d="M222.4688,32.5352 Q221.8906,32.832 221.25,32.9727 Q220.6094,33.1289 219.9063,33.1289 Q217.4063,33.1289 216.0781,31.4883 Q214.7656,29.832 214.7656,26.707 Q214.7656,23.582 216.0781,21.9258 Q217.4063,20.2695 219.9063,20.2695 Q220.6094,20.2695 221.25,20.4258 Q221.9063,20.582 222.4688,20.8789 L222.4688,23.5977 Q221.8438,23.0195 221.25,22.7539 Q220.6563,22.4727 220.0313,22.4727 Q218.6875,22.4727 218,23.5508 Q217.3125,24.6133 217.3125,26.707 Q217.3125,28.8008 218,29.8789 Q218.6875,30.9414 220.0313,30.9414 Q220.6563,30.9414 221.25,30.6758 Q221.8438,30.3945 222.4688,29.8164 L222.4688,32.5352 Z " fill="#000000"/><text fill="#D9B8FF" font-family="Helvetica" font-size="17" lengthAdjust="spacing" textLength="71" x="238.5" y="32.7798">resource</text></g><!--reverse link azure_proxy_resource to azure_machine_learning_environment_version_base--><g id="link_azure_proxy_resource_azure_machine_learning_environment_version_base"><path codeLine="41" d="M605.4562,223.9183 C585.5762,261.6883 550.12,329.05 530.2,366.88 " fill="none" id="azure_proxy_resource-backto-azure_machine_learning_environment_version_base" style="stroke:#FFAF37;stroke-width:2.0;"/><polygon fill="none" points="613.84,207.99,600.1468,221.1238,610.7657,226.7129,613.84,207.99" style="stroke:#FFAF37;stroke-width:2.0;"/></g><!--reverse link phantom_resource to azure_machine_learning_environment_version_base--><g id="link_phantom_resource_azure_machine_learning_environment_version_base"><path codeLine="42" d="M402.3762,222.6058 C429.5262,260.3758 478.88,329.05 506.07,366.88 " fill="none" id="phantom_resource-backto-azure_machine_learning_environment_version_base" style="stroke:#FFAF37;stroke-width:2.0;"/><polygon fill="none" points="391.87,207.99,397.5042,226.1078,407.2481,219.1037,391.87,207.99" style="stroke:#FFAF37;stroke-width:2.0;"/></g><!--reverse link azure_machine_learning_environment_version_base to azure_machine_learning_registry_environment_version--><g id="link_azure_machine_learning_environment_version_base_azure_machine_learning_registry_environment_version"><path codeLine="43" d="M473.1543,416.988 C423.2743,447.568 342.02,497.38 292.28,527.88 " fill="none" id="azure_machine_learning_environment_version_base-backto-azure_machine_learning_registry_environment_version" style="stroke:#FFAF37;stroke-width:2.0;"/><polygon fill="none" points="488.5,407.58,470.0183,411.8728,476.2903,422.1032,488.5,407.58" style="stroke:#FFAF37;stroke-width:2.0;"/></g><!--reverse link microsoft_resource to azure_machine_learning_registry_environment_version--><g id="link_microsoft_resource_azure_machine_learning_registry_environment_version"><path codeLine="44" d="M230.9857,325.3272 C237.4457,373.0272 251.86,479.56 258.38,527.66 " fill="none" id="microsoft_resource-backto-azure_machine_learning_registry_environment_version" style="stroke:#FFAF37;stroke-width:2.0;"/><polygon fill="none" points="228.57,307.49,225.04,326.1324,236.9314,324.5219,228.57,307.49" style="stroke:#FFAF37;stroke-width:2.0;"/></g><!--reverse link resource to microsoft_resource--><g id="link_resource_microsoft_resource"><path codeLine="45" d="M256.0148,64.7472 C249.5548,112.4572 235.14,218.98 228.62,267.08 " fill="none" id="resource-backto-microsoft_resource" style="stroke:#FFAF37;stroke-width:2.0;"/><polygon fill="none" points="258.43,46.91,250.0691,63.9422,261.9606,65.5523,258.43,46.91" style="stroke:#FFAF37;stroke-width:2.0;"/></g><!--reverse link resource to phantom_resource--><g id="link_resource_phantom_resource"><path codeLine="46" d="M285.7881,61.5406 C308.2781,92.0606 341.32,136.9 363.84,167.47 " fill="none" id="resource-backto-phantom_resource" style="stroke:#FFAF37;stroke-width:2.0;"/><polygon fill="none" points="275.11,47.05,280.9579,65.1,290.6183,57.9813,275.11,47.05" style="stroke:#FFAF37;stroke-width:2.0;"/></g><!--SRC=[dP9HJy8m58NVzokQy4m24WKINv34w0inuljojzwoXhLTRZjmgF_T8Mf6EqRWjUUxvznxqanoPAWALp65Aa6oaLrBNG21OZCYivsRt13h2G5YDFR5HwFTMM012jaJvXjqCWMVUCjakjPeBRjfI0-GhbTaIiqFzev0srf2xHhKF0ThPywHJ4g7ZMNuD9a8uPE-QM_4X-Cx33137EaN6Gm6V3ZraRDHdNV_4qkvGpPibhOm3eCrWuWVgdFBFT5OCZZqJp-vumjmBlMAtJRUNWyxaKOwUbzcmCrsJml8RJF6EYGqhYfm7bo5qmaNurRu-HGSfVlg6EnAmbX1cacDSOv0kawFKMya6QtgJn9lwgyiZOuJiCW-ekYhUvHm9QsZgiqZ72_8l5VrZ3KbfKVsIgPah16kLIqoqCweLktuhJNd_hFVxrzwV1I4NcTpQUUTALrrHoqTNc_cMOJUFk7N5Nq3]--></g></svg>

<svg xmlns="http://www.w3.org/2000/svg" width="768" height="573" viewBox="0 0 768 573"><rect width="482" height="39.789" x="279" y="367.37" fill="#3D176E" rx="2.5" ry="2.5" style="stroke:#000d19;stroke-width:.5"/><circle cx="294" cy="387.264" r="11" fill="#ADD1B2" style="stroke:#181818;stroke-width:1"/><path d="M296.969 392.905q-.578.297-1.219.438-.64.156-1.344.156-2.5 0-3.828-1.64-1.312-1.657-1.312-4.782t1.312-4.781q1.328-1.656 3.828-1.656.703 0 1.344.156.656.156 1.219.453v2.719q-.625-.579-1.219-.844-.594-.281-1.219-.281-1.344 0-2.031 1.078-.687 1.062-.687 3.156t.687 3.172q.688 1.062 2.031 1.062.625 0 1.219-.265.594-.281 1.219-.86z"/><text x="313" y="393.15" fill="#D9B8FF" font-family="Helvetica" font-size="17" textLength="440">azure_machine_learning_environment_version_base</text><rect width="508" height="39.789" x="7" y="528.16" fill="#3D176E" rx="2.5" ry="2.5" style="stroke:#000d19;stroke-width:.5"/><circle cx="22" cy="548.054" r="11" fill="#ADD1B2" style="stroke:#181818;stroke-width:1"/><path d="M24.969 553.695q-.578.297-1.219.438-.64.156-1.344.156-2.5 0-3.828-1.64-1.312-1.657-1.312-4.782t1.312-4.781q1.328-1.657 3.828-1.657.703 0 1.344.157.656.156 1.219.453v2.719q-.625-.579-1.219-.844-.594-.281-1.219-.281-1.343 0-2.031 1.078-.687 1.062-.687 3.156t.687 3.172q.688 1.062 2.031 1.062.625 0 1.219-.265.594-.282 1.219-.86z"/><text x="41" y="553.94" fill="#D9B8FF" font-family="Helvetica" font-size="17" textLength="466">azure_machine_learning_registry_environment_version</text><rect width="224" height="39.789" x="512" y="167.79" fill="#3D176E" rx="2.5" ry="2.5" style="stroke:#000d19;stroke-width:.5"/><circle cx="527" cy="187.685" r="11" fill="#ADD1B2" style="stroke:#181818;stroke-width:1"/><path d="M529.969 193.325q-.578.297-1.219.438-.64.156-1.344.156-2.5 0-3.828-1.64-1.312-1.657-1.312-4.782t1.312-4.781q1.328-1.656 3.828-1.656.703 0 1.344.156.656.156 1.219.453v2.719q-.625-.578-1.219-.844-.594-.281-1.219-.281-1.343 0-2.031 1.078-.687 1.062-.687 3.156t.687 3.172q.688 1.062 2.031 1.062.625 0 1.219-.265.594-.281 1.219-.86z"/><text x="546" y="193.57" fill="#D9B8FF" font-family="Helvetica" font-size="17" textLength="182">azure_proxy_resource</text><rect width="200" height="39.789" x="126" y="267.58" fill="#3D176E" rx="2.5" ry="2.5" style="stroke:#000d19;stroke-width:.5"/><circle cx="141" cy="287.474" r="11" fill="#ADD1B2" style="stroke:#181818;stroke-width:1"/><path d="M143.969 293.115q-.578.297-1.219.438-.64.156-1.344.156-2.5 0-3.828-1.64-1.312-1.657-1.312-4.782t1.312-4.781q1.328-1.656 3.828-1.656.703 0 1.344.156.656.156 1.219.453v2.719q-.625-.579-1.219-.844-.594-.281-1.219-.281-1.344 0-2.031 1.078-.687 1.062-.687 3.156t.687 3.172q.688 1.062 2.031 1.062.625 0 1.219-.265.594-.281 1.219-.86z"/><text x="160" y="293.36" fill="#D9B8FF" font-family="Helvetica" font-size="17" textLength="158">microsoft_resource</text><rect width="198" height="39.789" x="279" y="167.79" fill="#3D176E" rx="2.5" ry="2.5" style="stroke:#000d19;stroke-width:.5"/><circle cx="294" cy="187.685" r="11" fill="#ADD1B2" style="stroke:#181818;stroke-width:1"/><path d="M296.969 193.325q-.578.297-1.219.438-.64.156-1.344.156-2.5 0-3.828-1.64-1.312-1.657-1.312-4.782t1.312-4.781q1.328-1.656 3.828-1.656.703 0 1.344.156.656.156 1.219.453v2.719q-.625-.578-1.219-.844-.594-.281-1.219-.281-1.344 0-2.031 1.078-.687 1.062-.687 3.156t.687 3.172q.688 1.062 2.031 1.062.625 0 1.219-.265.594-.281 1.219-.86z"/><text x="313" y="193.57" fill="#D9B8FF" font-family="Helvetica" font-size="17" textLength="156">phantom_resource</text><rect width="113" height="39.789" x="204.5" y="7" fill="#3D176E" rx="2.5" ry="2.5" style="stroke:#000d19;stroke-width:.5"/><circle cx="219.5" cy="26.895" r="11" fill="#ADD1B2" style="stroke:#181818;stroke-width:1"/><path d="M222.469 32.535q-.578.297-1.219.438-.64.156-1.344.156-2.5 0-3.828-1.64-1.312-1.657-1.312-4.782t1.312-4.781q1.328-1.656 3.828-1.656.703 0 1.344.156.656.156 1.219.453v2.719q-.625-.578-1.219-.844-.594-.281-1.219-.281-1.344 0-2.031 1.078-.687 1.062-.687 3.156t.687 3.172q.688 1.062 2.031 1.062.625 0 1.219-.265.594-.281 1.219-.86z"/><text x="238.5" y="32.78" fill="#D9B8FF" font-family="Helvetica" font-size="17" textLength="71">resource</text><g fill="none"><path d="M605.456 223.918c-19.88 37.77-55.336 105.132-75.256 142.962" style="stroke:#ffaf37;stroke-width:2"/><path d="m613.84 207.99-13.693 13.134 10.619 5.589z" style="stroke:#ffaf37;stroke-width:2"/></g><g fill="none"><path d="M402.376 222.606c27.15 37.77 76.504 106.444 103.694 144.274" style="stroke:#ffaf37;stroke-width:2"/><path d="m391.87 207.99 5.634 18.118 9.744-7.004z" style="stroke:#ffaf37;stroke-width:2"/></g><path fill="none" d="M473.154 416.988c-49.88 30.58-131.134 80.392-180.874 110.892m196.22-120.3-18.482 4.293 6.272 10.23zm-257.514-82.253c6.46 47.7 20.874 154.233 27.394 202.333m-29.81-220.17-3.53 18.642 11.891-1.61zm27.445-242.743c-6.46 47.71-20.875 154.233-27.395 202.333m29.81-220.17-8.36 17.032 11.89 1.61z" style="stroke:#ffaf37;stroke-width:2"/><g fill="none"><path d="M285.788 61.54c22.49 30.52 55.532 75.36 78.052 105.93" style="stroke:#ffaf37;stroke-width:2"/><path d="m275.11 47.05 5.848 18.05 9.66-7.119z" style="stroke:#ffaf37;stroke-width:2"/></g></svg>
